X:90
T:Hand Me Down the Tackle
M:C
L:1/8
K:D Major
d2D2 FAA2|dfaf gfec|d2D2 FAA2|BGEF GABc|!
d2D2 FAA2|dfaf gfeg|faec dBAF|GFEF GABc:|!
d2fd Adfd|d2fd BAA2|d2fd Adfd|BGEF GABc|!
d2fd Adfd|Bdef g3e|faec dBAF|GFEF GABc|!
d2fd Adfd|d2fd BAA2|d2fd Adfd|Bdef g2fg|!
a^gab aff2|gfef gbag|faec dBAF|GFEF GABc|]!
